launcher/android/assets/skins/day/svg/Slice 7.svg

<svg enable-background="new 0 0 220.00 220.00" height="220" viewBox="0 0 220 220" width="220" xmlns="http://www.w3.org/2000/svg" xmlns:xlink="http://www.w3.org/1999/xlink"><linearGradient id="a" gradientTransform="matrix(-.966395140898 .257061143792 -.257061143792 -.966395140898 2.065211685697 .614896855393)" gradientUnits="objectBoundingBox" x1=".992414" x2="1.98393" y1=".442438" y2=".442438"><stop offset=".00925926" stop-color="#fff"/><stop offset="1" stop-color="#fcfcff" stop-opacity="0"/></linearGradient><linearGradient id="b"><stop offset=".00925926" stop-color="#fff"/><stop offset="1" stop-color="#fff" stop-opacity="0"/></linearGradient><linearGradient id="c" gradientTransform="matrix(-.968599743862 .24862529274 -.24862529274 -.968599743862 2.063126231446 .620166437066)" gradientUnits="objectBoundingBox" x1=".992401" x2="1.9844" xlink:href="#b" y1=".440365" y2=".440365"/><linearGradient id="d" gradientTransform="matrix(-.940434384383 .339975247143 -.339975247143 -.940434384383 2.119009965461 .542379285576)" gradientUnits="objectBoundingBox" x1="1.01199" x2="2.01995" xlink:href="#b" y1=".456821" y2=".456821"/><g stroke-linejoin="round"><ellipse cx="105.389" cy="185.04" fill="#c7c7c7" rx="19" ry="19.25" stroke="#000" stroke-width="5"/><path d="m78.8886 103.29-17-7.5-9.0001-10.9998-4-10-.5-13 4-10.5 6-9.5 6.5-6.5 11-7.5 8.5-3.5 11-2 11.5005-.5 12-1 11.5 1.5 7.5 3.5 10 5 9 6.5 6.5 7 7 12 1 11-1.5 14-4.5 7.5-7.5 8-9 9.9998-12 8.5-12 10-6.5 11.5-3.5 8 .271 3.534-.584 3.154-2.875 1.5-10.812-.188-4.0005-3v-9l6.5005-10.5 8.5-12.5 11.5-13 4.5-6.9998 4-11.5v-10.5l-2.5-12-6-6-10-4.5-9-1-7.5005.5-9 3-6 5.5v6.5l2 6.5 7.5 5 5 3 1.5 5-1 5.5-3 4-3.5 3.4998-6.5 1.5z" fill="#c7c7c7" stroke="#000" stroke-width="5"/><g stroke-width=".2"><path d="m124.222 27.29 11.333 7.6667 9.334 7.3335 8.333 10.3333 3.667 9.3333 1.333 12.3334-2 12-3.333 5.6666 4.63 1.5463 9.37-12.5463 1.666-9.6666-.333-13-7.203-11.7871-4.464-5.2129-1.666-2.3334-4.667-3-6.667-5-6.666-3-6-1.3333z" fill="url(#a)"/><path d="m81.0552 73.3735-2.9583-2.0417-2.375 5.7082 4 4.3335 4 4.6667 1 5.3333-.3334 6-.5416 2.0415 4.4167-.75 3.6667-2.0833 2.8333-2.6667-.0833-3.5.3332-3.4165-1-2.8333-4.6666-3-3.4167-2.1667-3-2.1667" fill="url(#c)"/><path d="m106.889 168.623 3.666 4.334 2.334 4.666-.334 6.667-1.333 6.667-2.333 5.666.666 3 3.36-.099 3.833-2.25 3.084-4.167 1.666-4.916s.809-3.712.391-5.234c-.365-1.325-1-5.334-1-5.334l-1.334-4-3.333-3-3-2z" fill="url(#d)"/></g></g></svg>

﻿<?xml version="1.0" encoding="utf-8"?>
<!DOCTYPE svg PUBLIC "-//W3C//DTD SVG 1.1//EN" "http://www.w3.org/Graphics/SVG/1.1/DTD/svg11.dtd">
<svg xmlns="http://www.w3.org/2000/svg" xmlns:xlink="http://www.w3.org/1999/xlink" version="1.1" baseProfile="full" width="220" height="220" viewBox="0 0 220.00 220.00" enable-background="new 0 0 220.00 220.00" xml:space="preserve">
	<ellipse fill="#C7C7C7" fill-opacity="1" stroke-width="5" stroke-linejoin="round" stroke="#000000" stroke-opacity="1" cx="105.389" cy="185.04" rx="19" ry="19.25"/>
	<path fill="#C7C7C7" fill-opacity="1" stroke-width="5" stroke-linejoin="round" stroke="#000000" stroke-opacity="1" d="M 78.8886,103.29L 61.8886,95.79L 52.8885,84.7902L 48.8885,74.7902L 48.3885,61.7902L 52.3885,51.2902L 58.3885,41.7902L 64.8885,35.2902L 75.8885,27.7902L 84.3885,24.2902L 95.3885,22.2902L 106.889,21.7902L 118.889,20.7902L 130.389,22.2902L 137.889,25.7902L 147.889,30.7902L 156.889,37.2902L 163.389,44.2902L 170.389,56.2902L 171.389,67.2902L 169.889,81.2902L 165.389,88.7902L 157.889,96.7902L 148.889,106.79L 136.889,115.29L 124.889,125.29L 118.389,136.79L 114.889,144.79L 115.16,148.324L 114.576,151.478L 111.701,152.978L 100.889,152.79L 96.8885,149.79L 96.8885,140.79L 103.389,130.29L 111.889,117.79L 123.389,104.79L 127.889,97.7902L 131.889,86.2902L 131.889,75.7902L 129.389,63.7902L 123.389,57.7902L 113.389,53.2902L 104.389,52.2902L 96.8885,52.7902L 87.8885,55.7902L 81.8885,61.2902L 81.8885,67.7902L 83.8885,74.2902L 91.3885,79.2902L 96.3885,82.2902L 97.8885,87.2902L 96.8885,92.7902L 93.8885,96.7902L 90.3885,100.29L 83.8885,101.79L 78.8886,103.29 Z "/>
	<linearGradient id="SVGID_Fill1_" gradientUnits="objectBoundingBox" x1="0.992414" y1="0.442438" x2="1.98393" y2="0.442438" gradientTransform="rotate(165.104248 0.992414 0.442438)">
		<stop offset="0.00925926" stop-color="#FFFFFF" stop-opacity="1"/>
		<stop offset="1" stop-color="#FCFCFF" stop-opacity="0"/>
	</linearGradient>
	<path fill="url(#SVGID_Fill1_)" stroke-width="0.2" stroke-linejoin="round" d="M 124.222,27.29L 135.555,34.9567L 144.889,42.2902L 153.222,52.6235L 156.889,61.9568L 158.222,74.2902L 156.222,86.2902L 152.889,91.9568L 157.519,93.5031L 166.889,80.9568L 168.555,71.2902L 168.222,58.2902L 161.019,46.5031L 156.555,41.2902L 154.889,38.9568L 150.222,35.9568L 143.555,30.9568L 136.889,27.9568L 130.889,26.6235L 124.222,27.29 Z "/>
	<linearGradient id="SVGID_Fill2_" gradientUnits="objectBoundingBox" x1="0.992401" y1="0.440365" x2="1.9844" y2="0.440365" gradientTransform="rotate(165.603821 0.992401 0.440365)">
		<stop offset="0.00925926" stop-color="#FFFFFF" stop-opacity="1"/>
		<stop offset="1" stop-color="#FFFFFF" stop-opacity="0"/>
	</linearGradient>
	<path fill="url(#SVGID_Fill2_)" stroke-width="0.2" stroke-linejoin="round" d="M 81.0552,73.3735L 78.0969,71.3318L 75.7219,77.04L 79.7219,81.3735L 83.7219,86.0402L 84.7219,91.3735L 84.3885,97.3735L 83.8469,99.415L 88.2636,98.665L 91.9303,96.5817L 94.7636,93.915L 94.6803,90.415L 95.0135,86.9985L 94.0135,84.1652L 89.3469,81.1652L 85.9302,78.9985L 82.9302,76.8318"/>
	<linearGradient id="SVGID_Fill3_" gradientUnits="objectBoundingBox" x1="1.01199" y1="0.456821" x2="2.01995" y2="0.456821" gradientTransform="rotate(160.124634 1.011991 0.456821)">
		<stop offset="0.00925926" stop-color="#FFFFFF" stop-opacity="1"/>
		<stop offset="1" stop-color="#FFFFFF" stop-opacity="0"/>
	</linearGradient>
	<path fill="url(#SVGID_Fill3_)" stroke-width="0.2" stroke-linejoin="round" d="M 106.889,168.623L 110.555,172.957L 112.889,177.623L 112.555,184.29L 111.222,190.957L 108.889,196.623L 109.555,199.623L 112.915,199.524L 116.748,197.274L 119.832,193.107L 121.498,188.191C 121.498,188.191 122.307,184.479 121.889,182.957C 121.524,181.632 120.889,177.623 120.889,177.623L 119.555,173.623L 116.222,170.623L 113.222,168.623L 106.889,168.623 Z "/>
</svg>
